X:1
T:Title
%%score 1 2 3 4
L:1/8
M:4/4
K:C
V:1 treble-8 nm="Part_1"
V:2 treble-8 nm="Part_2"
V:3 bass nm="Part_3"
V:4 bass nm="Part_4"
V:1
 z2 d4 A2 | z2 B2 ^c4 | ^c4 z2 d2 | e8 | A8 | z8 | z4 z2 dd | d3 d ^c4 | d2 d^c e>e A2 | z2 A4 B2 | %10
 B8 | ^c4 d2 dA | B>A G2 e2 e^c | d>^c B2 z2 de | e8 | d4 z4 | z8 | z4 z2 ed | ^c2 A2 z2 dc | %19
 B2 G2 z2 ed | ^cBdc B4 | A4 z4 | z8 | z8 | z4 AB/^c/ d/c/d/c/ | B^c/d/ e/d/e/d/ cd/e/ ^f/e/d/c/ | %26
 B2 A2 z4 | z8 | z8 | z8 | z4 AB/^c/ d/c/d/c/ | B^c/d/ e/d/e/d/ cd/e/ ^f/e/d/c/ | B2 A2 z4 | %33
 z2 ^FG AAAG | B2 B2 z4 | z4 z2 ^FG | AAAG BBBA | cBBA A4 | G4 z4 | z8 | %40
 AB/^c/ d/c/d/c/ Bc/d/ e/d/e/d/ | ^cd/e/ ^f/e/d/c/ B2 A2 | z4 z2 ^FG | AAAG BBde | ^fffe e4 | d8 | %46
 z8 | z8 | z8 | z2 e4 BB/^c/ | AAAB ^c2 c2 | d2 dd (d2 ^c2) | d8 | z8 | z2 g4 ^ff/g/ | %55
 ee^cd e2 e2 | z8 | z8 | z2 e4 BB/^c/ | AA^cc d2 d2 | z2 z d e2 e2 | z2 z e ^cA dc/d/ | %62
 (B2 c2) d2 z2 | z4 z2 z d | ^cA dc/d/ B2 A2 | z4 z2 z g | ^fd z2 z4 | z e^cA z4 | z2 ^cc d2 d2 | %69
 z2 z d e2 e2 | z2 z e ^cA dc/d/ | (B2 ^c2) d2 z2 | z4 z2 z d | ^cA dc/d/ B2 A2 | z4 z2 z g | %75
 ^fd z2 z4 | z e^cA z4 | z8 | z2 B2 A2 AB | G4 A4 | z2 B2 A2 AB | G4 A4 | z4 z2 d2- | d2 dc B4- | %84
 B4 A2 G2 | A8- | A8 |] %87
V:2
 z8 | z8 | z8 | z8 | z2 d4 A2 | z2 B2 ^c4 | ^c4 z2 d2 | e8 | A8 | z4 z2 AA | A3 A ^G4 | %11
 A2 AE A>A D2 | d2 dB ^c>B A2 | z2 d4 d2 | d4 ^c4 | d8 | z8 | z8 | z2 ed ^c2 A2 | z2 dc BGBB | %20
 A^GBA A2 G2 | A4 z4 | z8 | z8 | z4 ^FG/A/ B/A/B/A/ | ^GA/B/ ^c/B/c/B/ AB/c/ d/c/B/A/ | ^G2 A2 z4 | %27
 z8 | z8 | z8 | z4 ^FG/A/ B/A/B/A/ | ^GA/B/ ^c/B/c/B/ AB/c/ d/c/B/A/ | ^G2 A2 z4 | z2 DE ^FFFE | %34
 G2 G2 z4 | z4 z2 DE | ^FFFE GGGF | E^FGG (G2 F2) | G4 z4 | z8 | ^FG/A/ B/A/B/A/ ^GA/B/ ^c/B/c/B/ | %41
 AB/^c/ d/c/B/A/ ^G2 A2 | z4 z2 DE | ^FFFE GGBc | dddd (d2 ^c2) | d8 | z8 | z8 | z8 | z8 | z8 | %51
 z8 | z8 | z2 d4 AA/B/ | GG e4 dd/e/ | ^ccAB c2 c2 | z8 | z2 e4 BB/^c/ | AA B4 BB/A/ | %59
 A2 A2 z2 AA | B2 B2 z2 z B | ^c2 c2 z4 | z4 z d^cA | d^c/d/ B2 A4 | z8 | z d^cA dc/d/ B2 | %66
 Ad^cA z4 | z2 z A ^FD z2 | z4 z2 AA | B2 B2 z2 z B | ^c2 c2 z4 | z4 z d^cA | d^c/d/ B2 A4 | z8 | %74
 z d^cA dc/d/ B2 | Ad^cA z4 | z2 z A ^FD z2 | z8 | z8 | z2 B2 A3 B | G4 ^F4 | z2 B2 A2 AB | %82
 G4 ^F2 B2- | B2 AB G4- | G4 ^F2 E2 | ^F8- | F8 |] %87
V:3
 z8 | z8 | z8 | z8 | z8 | z8 | z8 | z8 | z8 | z8 | z8 | z8 | z8 | z8 | z4 z2 A,G, | %15
 ^F,2 D,2 z2 =B,A, | ^G,2 E,2 z2 A,=G, | ^F,G,A,A, A,3 ^G, | A,4 z4 | z8 | z4 z2 E,D, | %21
 ^C,2 A,,2 z2 A,G, | ^F,2 D,2 z2 E,F, | G,^F,F,E, E,4 | D,8 | z8 | %26
 E,^F,/G,/ A,/G,/A,/G,/ F,G,/A,/ =B,/A,/B,/A,/ | G,A,/B,/ C/B,/A,/G,/ ^F,2 E,2 | %28
 z2 E,^F, ^G,G,G,G, | A,A,^F,F, G,F,F,E, | E,4 D,4 | z8 | z2 A,,B,, ^C,C,C,B,, | D,2 D,2 z4 | %34
 D,E,/^F,/ G,/F,/G,/F,/ E,F,/G,/ A,/G,/A,/G,/ | ^F,G,/A,/ =B,/A,/G,/F,/ E,2 D,2 | z8 | z8 | %38
 D,E,/^F,/ G,/F,/G,/F,/ E,F,/G,/ A,/G,/A,/G,/ | ^F,G,/A,/ =B,/A,/G,/F,/ E,2 D,2 | z8 | %41
 z4 z2 A,,B,, | ^C,C,C,B,, D,2 D,2 | z4 z2 G,G, | ^F,F,F,G, A,4 | D,8 | z2 A,4 ^F,2 | %47
 z2 =B,4 ^F,F,/G,/ | E,E,E,^F, ^G,2 G,2 | A,2 A,A, (A,2 ^G,2) | A,4 z4 | z2 A,4 E,E,/^F,/ | %52
 D,D,D,E, ^F,2 F,2 | G,2 G,G, (G,2 ^F,2) | G,4 z4 | z4 z2 z A,, | D,2 D,D, A,2 A,2 | %57
 ^C,2 C,D, E,4 | A,,2 ^G,4 G,G,/G,/ | A,2 A,2 z2 ^F,F, | G,2 G,2 z2 z ^G, | A,2 A,2 z A,^F,D, | %62
 G,^F,/G,/ E,2 D,2 z2 | z A,^G,E, A,G,/A,/ ^F,2 | E,2 z2 z G,^F,D, | G,^F,/G,/ E,2 D,4 | %66
 z2 z A, G,E, ^F,E,/D,/ | E,2 A,,2 z D,C,A,, | =B,,A,,/G,,/ A,,2 D,,2 ^F,F, | G,2 G,2 z2 z ^G, | %70
 A,2 A,2 z A,^F,D, | G,^F,/G,/ E,2 D,2 z2 | z A,^G,E, A,G,/A,/ ^F,2 | E,2 z2 z G,^F,D, | %74
 G,^F,/G,/ E,2 D,4 | z2 z A, G,E, ^F,E,/D,/ | E,2 A,,2 z D,C,A,, | =B,,B,,/G,,/ A,,2 D,,4 | z8 | %79
 z2 G,2 G,2 ^F,2 | G,4 D,4 | z2 G,2 G,2 G,^F, | G,4 D,2 G,,2- | G,,2 ^F,,F,, G,,4 | D,8- | D,8 | %86
 D,8 |] %87
V:4
 D,8 | D,4 A,,4- | A,,4 ^F,4 | E,8 | D,8 | D,4 A,,4 | A,,4 ^F,4 | E,8 | D,4 ^C,4 | D,4 ^F,4 | E,8 | %11
 A,,4 ^F,,4 | G,,4 A,,4 | B,,3 A,, G,,2 ^F,,2 | A,,8 | D,3 C, B,,4 | E,3 D, ^C,4 | D,2 ^C,2 E,4 | %18
 A,,2 A,4 ^F,2 | G,6 ^G,2 | A,2 D,2 E,4 | A,,2 A,G, ^F,2 E,2 | D,2 D,C, B,,2 A,,2 | G,,4 A,,4 | %24
 D,4 D,2 B,,2 | E,2 ^C,2 ^F,2 D,2 | E,2 A,,2 D,2 B,,2 | E,2 A,,2 B,,2 E,2 | z2 E,^F, ^G,4 | %29
 A,2 ^F,2 G,2 F,2 | E,4 D,2 B,,2 | E,2 ^C,2 ^F,2 D,2 | E,2 A,,2 ^C,4 | D,4 D,4 | %34
 G,,2 E,,2 A,,2 ^F,,2 | =B,,2 G,,2 A,,2 D,,2- | D,,2 D,2 G,,4 | C,4 D,4 | G,,2 E,,2 A,,2 ^F,,2 | %39
 =B,,2 G,,2 A,,2 D,,2 | D,2 B,,2 E,2 ^C,2 | ^F,2 D,2 E,2 A,,2 | ^C,4 D,3 E, | ^F,4 G,2 G,2 | %44
 ^F,3 G, A,4 | D,8 | D,8 | B,,8 | E,8 | ^C,3 D, E,4 | A,,8 | ^F,,3 G,, A,,4 | D,8 | B,,3 C, D,4 | %54
 G,,2 G,,4 G,,2 | A,,4 A,,3 A,, | D,2 D,D, A,4 | ^C,4 E,4 | A,,2 ^G,4 G,2 | A,4 z2 ^F,2 | %60
 G,6 ^G,2 | A,2 A,3 A,^F,D, | G,^F, E,2 D,2 A,2 | D,2 E,2 ^C,2 D,2 | A,,2 ^F,,2 G,,2 D,2 | %65
 G,,2 A,,2 ^F,,2 G,,2 | D,2 A,2 G,E,^F,D, | E,2 A,,2 D,2 C,A,, | B,,G,, A,,2 D,,2 ^F,2 | G,6 ^G,2 | %70
 A,2 A,3 A,^F,D, | G,^F, E,2 D,2 A,2 | D,2 E,2 ^C,2 D,2 | A,,2 ^F,,2 G,,2 D,2 | %74
 G,,2 A,,2 ^F,,2 G,,2 | D,2 A,2 G,E,^F,D, | E,2 A,,2 D,2 C,A,, | B,,G,, A,,2 D,,4 | G,,2 G,4 ^F,2 | %79
 G,4 D,4 | G,,4 D,4 | G,,2 G,4 ^F,2 | G,4 D,2 G,,2- | G,,2 ^F,,2 G,,4 | D,8 | D,8- | D,8 |] %87

